X:1
T:Title
L:1/8
Q:1/4=220
M:4/4
K:Eb
V:1 treble nm="Church Organ, Staff"
V:1
 G4 A4- | A2 G2 A4- | A2 G2 B4 | F4 z4 | F4 d4- | d2 B2 =A4 | F4 B4- | B8 | B4 B4- | B2 =A2 B4- | %10
w: By~Rev.~R.~F.~Smith *||||||||||
 B2 =A2 A4- | A4 G4 | B4 B4 | G4 F4 | A4 G4- | G8 | B4 c2 d2 | e4 d4 | G4 A4 | c4 B4 | E4 F4 | %21
w: |||||||||||
 G2 A2 B4 | c4 d4- | d8 | d4 e4- | e2 e2 e4 | c4 B4 | A4 G4 | G4 A4- | A2 G2 F4 | G4 E4- | E8 |] %32
w: |||||||||||

